X: 34536
T: Ríl Phadaí 'n Atharaigh
R: reel
M: 4/4
K: Dmajor
AdBG A3F|GEED GEEG|AdBG A3G|1 FDEG FDDF:|2 FDEG FDD2||
f2ec dBAF|GEED GEEg|f2ec dABG|(3FED EG FDDg|
f2ec dBAF|GEED GFEF|GABc dBAG|(3FED EG FDDF|

